X:1
T:Der Morgenstern ist aufgedrungen
T:Satz: Carl Thiel
T:Der Morgenstern ist aufgedrungen
T:Nach einem Volkslied des 15. Jahrhunderts
T:CPDL - Creative Commons Attribution Non Commercial 3.0
T:CPDL - Creative Commons Attribution Non Commercial 3.0
T:CPDL - Creative Commons Attribution Non Commercial 3.0
C:Carl Thiel
Z:CPDL - Creative Commons Attribution Non Commercial 3.0
%%score [ 1 2 3 4 ]
L:1/8
Q:1/4=108
M:4/4
K:G
V:1 treble nm="S"
V:2 treble nm="A"
V:3 treble-8 nm="T"
V:4 bass nm="B"
V:1
"^Ziemlich bewegt""^poco"!f! d2 | d2 BA G2 A2 |!<(! (Bc d4)!<)! B2 |!>(! c4!>)! B4 | %4
w: 1.~Der|Mor- gen- * stern ist|auf- * * ge-|drun- gen,|
w: 2.~Chris-|tus im * Him- mel|wohl _ _ be-|dach- te,|
w: 3.~O|heil'- ger * Mor- gen-|stern, _ _ wir|prei- sen|
 z2!<(! d2 d4!<)! | B2!>(! A4 G2!>)! |!<(! c2 A2!<)! d4 |!>(! B4!>)! z2!mf! B2 | %8
w: er leucht'|da- her zu|die- ser Stun-|de hoch|
w: wie er|uns reich und|se- lig mach-|te, uns|
w: dich heu-|te hoch mit|fro- hen Wei-|sen; du|
 BB!<(!Bc d2 d2!<)! |!f! (d2 cB!>(! A4)!>)! |!p![Q:1/4=98]"^(etwas langsamer)" G2 FE D4 | %11
w: ü- ber Berg und tie- fe|Tal, _ _ _|tie- fe _ Tal,|
w: wie- der brächt' ins Pa- ra-|dies, _ _ _|Pa- ra- * dies,|
w: leuch- test vie- len nah und|fern, _ _ _|nah und _ fern,|
 z2!mf![Q:1/4=108]"^a tempo"!<(! D2 G2 G2 | A2 A2 (Bc d2- | d2) B2!<)! (B2 AG |!f! B4) A4 | %15
w: vor Freud singt|uns der lie- * *|* ben En- * *|* gel|
w: da- rum er|Got- tes Him- * *|* mel gar _ _|_ ver-|
w: so leucht auch|uns, Herr Christ, _ _|_ du Mor- * *|* gen-|
 G4 z2 |] %16
w: Schar.|
w: ließ.|
w: stern!|
V:2
"^poco"!f! G2 | F2 GF E3 F |!<(! (G2 A2) F2!<)! (G2- |!>(! G2 F2)!>)! G2 DE | %4
w: 1.~Der|Mor- gen- * stern ist|auf- * ge- drun-|* * gen, er _|
w: 2.~Chris-|tus im * Him- mel|wohl _ be- dach-|* * te, wie _|
w: 3.~O|heil'- ger * Mor- gen-|stern, _ wir prei-|* * sen dich _|
 (F2!<(! A2) (G2!<)! F2) | (G2!>(! FE F2) E2!>)! |!<(! E2 FG!<)! (A2 F2) |!>(! G4!>)! z2!mf! G2 | %8
w: leucht' _ da- *|her _ _ _ zu|die- ser _ Stun- *|de hoch|
w: er _ uns _|reich _ _ _ und|se- lig _ mach- *|te, uns|
w: heu- * te _|hoch _ _ _ mit|fro- hen _ Wei- *|sen; du|
 F2!<(! G2 G2 F2!<)! |!f! G2 AG!>(! (G2 F2)!>)! |!p! E2 ^C2 B,4 | z2!mf!!<(! B,2 B,2 D2 | %12
w: ü- ber Berg und|tie- fe _ Tal, _|tie- fe Tal,|vor Freud singt|
w: wie- der brächt ins|Pa- ra- * dies, _|Pa- ra- dies,|da- rum er|
w: leuch- test vie- len|nah und _ fern, _|nah und fern,|so leucht auch|
 E2 D2 (D3 E | F2) G2!<)! (D2 E2 |!f! D2 G4) F2 | D4 z2 |] %16
w: uns der lie- *|* ben En- *|* * gel|Schar.|
w: Got- tes Him- *|* mel gar _|_ _ ver-|ließ.|
w: uns, Herr Christ, _|_ du Mor- *|* * gen-|stern!|
V:3
"^poco"!f! B2 | A2 B2 c2 c2 |!<(! d4 d4!<)! |!>(! c4!>)! d2 B2 | A4!<(! (B2!<)! c2) | %5
w: 1.~Der|Mor- gen- stern ist|auf- ge-|drun- gen, er|leucht' da- *|
w: 2.~Chris-|tus im Him- mel|wohl be-|dach- te, wie|er uns _|
w: 3.~O|heil'- ger Mor- gen-|stern, wir|prei- sen dich|heu- te _|
 (d2!>(! c4) B2!>)! |!<(! A2 A2!<)! (A2 d2) |!>(! d2!mf! B2!>)! e2 B2 | B2!<(! G2 (G2 A2!<)! | %9
w: her _ zu|die- ser Stun- *|de hoch ü- ber|Berg und tie- *|
w: reich _ und|se- lig mach- *|te, uns wie- der|brächt ins Pa- *|
w: hoch _ mit|fro- hen Wei- *|sen; du leuch- test|vie- len nah _|
!f! B2) e2!>(! (A2 d2)!>)! |!p! B2 AG F2!mp! F2 | (B3!<(! A G2) G2 | G2 F2 (GA B2 | %13
w: * fe Tal, _|tie- fe _ Tal, vor|Freud _ _ singt|uns der lie- * *|
w: * ra- dies, _|Pa- ra- * dies, da-|rum- * * er|Got- tes Him- * *|
w: _ und fern, _|nah und _ fern, so|leucht _ _ auch|uns, Herr Christ, _ _|
 A2) G2!<)! (G4- |!f! G2 Bc d2) A2 | B4 z2 |] %16
w: * ben En-|* * * * gel|Schar.|
w: * mel gar|_ _ _ _ ver-|ließ.|
w: _ du Mor-|* * * * gen-|stern!|
V:4
"^poco"!f! G,2 | D,2 G,2 C2 A,2 |!<(! G,2 F,2 (B,2!<)! G,2 |!>(! A,4!>)! G,4) | %4
w: 1.~Der|Mor- gen- stern ist|auf- ge- drun- *||
w: 2.~Chris-|tus im Him- mel|wohl be- dach- *||
w: 3.~O|heil'- ger Mor- gen-|stern, wir prei- *||
 D,2!<(! F,2 G,2!<)! A,2 | (G,2!>(! A,2 ^D,2) E,2!>)! |!<(! C,2 =D,E,!<)! (F,2 D,2) | %7
w: gen, er leucht' da-|her _ _ zu|die- ser _ Stun- *|
w: te, wie er uns|reich _ _ und|se- lig _ mach- *|
w: sen dich heu- te|hoch _ _ mit|fro- hen _ Wei- *|
!>(! G,4!>)! z2!mf! E,2 | ^D,2!<(! E,2 B,,2 =D,2!<)! |!f! G,2 C,2!>(! D,4!>)! |!p! E,2 A,,2 B,,4 | %11
w: de hoch|ü- ber Berg und|tie- fe Tal,|tie- fe Tal,|
w: te, uns|wie- der brächt ins|Pa- ra- dies,|Pa- ra- dies,|
w: sen; du|leuch- test vie- len|nah und fern,|nah und fern,|
 z2!mf!!<(! G,F, E,2 B,,2 | C,2 D,2 (G,4 | D,2) E,2!<)! (B,,2 ^C,2 |!f! D,4) D,4 | G,,4 z2 |] %16
w: vor * Freud singt|uns der lie-|* ben En- *|* gel|Schar.|
w: da- * rum er|Got- tes Him-|* mel gar _|_ ver-|ließ.|
w: so * leucht auch|uns, Herr Christ,|_ du Mor- *|* gen-|stern!|

